X:1
T:Kiss The Maid Behind The Barrel
S:Maeve Donnelly And Peadar O'Loughlin: The Thing Itself
Z:Jack Gilder
M:4/4
L:1/8
R:reel
K:Gmaj
DG~G2 AGGF | DG~G2 cAFA | DGGB AGFA |1 defd cAGF :|2 defd cAFA ||!
dg~g2 aggf | dg~g2 agfe | df~f2 af~f2 | defd cAFA |!
dg~g2 agfg | abag ~f3g | afge fde^c | d^cde fd=cA ||!
G2dG BGdG | ~G2dG cAFA | G2dG BABc | defd cAFA |!
G2dG BGdG | ~G2dG cAFA | ~B3G ABcA | defd cAFA ||!
~B3G ~A2GA | ~B3c dedc | BG~G2 AGFA |1 defd cAFA :|2 defd cAGF||!
